X:1
T:Ave Maris Stella
T:Ave Maris Stella
T:Edvard Grieg (1843-1907)
T:SATB
C:Edvard Grieg (1843-1907)
%%score [ 1 ( 2 3 ) ( 4 5 ) ( 6 7 ) ]
L:1/8
Q:1/4=63
M:4/4
K:G
V:1 treble nm="Soprano" snm="S."
V:2 treble nm="Alto" snm="A."
V:3 treble 
V:4 treble-8 nm="Tenor" snm="T."
V:5 treble-8 
V:6 bass nm="Bass" snm="B."
V:7 bass 
V:1
"^Allegretto molto tranquillo"!p! B3 A G2 A2 | (B2 d2) d4 | B3!<(! A G2 A2!<)! | %3
w: A- ve, ma- ris|stel- * la,|De- i ma- ter|
!>(! (B2 d2)!>)! d4 |"^poco animato"!mf! ^d3"^cresc.""^cresc.""^cresc.""^cresc." ^c B2 c2 | %5
w: al- * ma,|At- que sem- per|
 ^d2 B2 e2 d2 |!f! ^c6 ^d2 | !>!B4 B4 | z8 |!>(!!>(! z8!>)!!>)! | %10
w: Vir- go, Fe- lix|coe- li|por- ta.|||
"^tranquillo""^dolce"!pp! A3 B B2 =c2 | (c2 B2) B4 | G3 A A2 B2 | (B2 A2) A4 | %14
w: Sol- ve vin- cla|re- * is:|Pro- fer lu- men|cæ- * cis,|
 F3"^cresc. molto" G G2 A2 | B2 e2!f!!<(!!<(!!<(!!<(! e4-!<)!!<)!!<)!!<)! | %16
w: Ma- la no- stra|pel- le, Bo-|
 e2"_dim.""_dim." E2"^dim." G2 B2 | (A6 B2) |!p! G2 (B2!>(!!>(! d2)!>)! [dg]2!>)! | %19
w: * na cunc- ta|pos- *|ce, cunc- * ta|
"^poco rit."!<(!!<(!!<(! (([eg]4!<)!!>(!!>(! [df]4))!<)!!<)!!>)!!>)! |!pp! [dg]4- [dg]2 z2 | %21
w: pos- *|ce. *|
!p!"^a tempo" B3 A G2 A2 | (B2 d2) d4 | B3!<(!!<(!!<(! A!<(! G2!<)!!<)!!<)!!<)!!<(! A2!<)! | %24
w: Vi- tam præ- sta|pu- * ram,|I- ter pa- ra|
!>(!!>(!!>(!!>(!!>(! (B2 d2)!>)!!>)!!>)! d4!>)!!>)! | %25
w: tu- * tum,|
"^poco animato"!mf! ^d3"_cresc.""_cresc.""^cresc.""_cresc." ^c B2 c2 | ^d2 B2 e2 d2 |!f! ^c6 ^d2 | %28
w: Ut, vi- den- tes|Je- sum, Sem- per|col- la-|
 !>!B4 B4 |!pp!!pp!!<(!!<(! z8!<)!!<)! |!>(!!>(! z8!>)!!>)! | %31
w: te- mur.|||
"^tranquillo""^dolce"!pp! A3 B B2 =c2 | (c2 B2) B4 | G3 A A2 B2 | (B2 A2) A4 | %35
w: Sit laus De- o|pa- * tri,|Sum- mo Chri- sto|de- * cus,|
 F3"^cresc.molto" G G2 A2 | B2 e2!f!!<(!!<(!!<(!!<(! e4-!<)!!<)!!<)!!<)! | %37
w: Spi- ri- tu- i|San- cto: Tri-|
 e2"_dim.""_dim.""_dim." E2"^dim." G2 B2 | (A6 B2) |!p! G2 (B2!>(!!>(!!>(! d2)!>)! [dg]2!>)!!>)! | %40
w: * bus ho- nor|u- *|­~nus, ho- * nor|
!<(!!<(!!<(! (([eg]4!<)!!<)!"^poco rit."!>(!!>(! [df]4))!<)!!>)!!>)! |!pp! [dg]4- [dg]2 z2 | %42
w: u- *|nus. *|
!<(!!<(!!<(!!<(!!<(!!>(! G8!<)!!<)!!<)!!<)!!<)!!>)! | !fermata!G8 |] %44
w: A-|men.|
V:2
!p! [DG]3 [DF] [DE]2 [DF]2 | (([DG]2 [GB]2)) [GB]4 | [DG]3!<(! [DF] [DE]2 [^CG]2!<)! | %3
w: A- ve, ma- ris|stel- * la,|De- i ma- ter|
!>(! ((([DF]2 [FB]2)))!>)! [GB]4 |!mf! F3 F F2 F2 | F2 ^D2 B2 B2 |!f! (B4 ^A2) A2 | !>!^G4 F4 | %8
w: al- * ma,|At- que sem- per|Vir- go, Fe- lix|coe- * li|por- ta.|
 z8 | z8 |!pp! [=DF]3 [DF] [DF]2 [DF]2 | [DF]4 [DF]4 | [CE]3 [CE] [CE]2 [CE]2 | [CE]4 [CE]4 | %14
w: ||Sol- ve vin- cla|re- is:|Pro- fer lu- men|cæ- cis,|
 [B,^D]3"^cresc.molto" D D2 D2 | B3 c!f! !>!c2 !>!d2 | (!>!c2 C2 E2) G2 | (G4 F4) | %18
w: Ma- la no- stra|pel- le, Bo- na|cunc- * * ta|pos- *|
!p! G2 (([DG]2 [GB]2)) [Bd]2 | c8 |!pp! [GB]4- [GB]2 z2 |!p! [DG]3 [DF] [DE]2 [DF]2 | %22
w: ce, cunc- * ta||ce. *|Vi- tam præ- sta|
 (([DG]2 [GB]2)) [GB]4 | [DG]3 [DF]!<(! [DE]2 [^CG]2!<)! |!>(! (([DF]2 [FB]2)) [GB]4!>)! | %25
w: pu- * ram,|I- ter pa- ra|tu- * tum,|
!mf! F3 F F2 F2 | F2 ^D2 B2 B2 |!f! (B4 ^A2) A2 | !>!^G4 F4 | z8 | z8 | %31
w: Ut, vi- den- tes|Je- sum, Sem- per|col- * la-|te- mur.|||
!pp! [=DF]3 [DF] [DF]2 [DF]2 | [DF]4 [DF]4 | [CE]3 [CE] [CE]2 [CE]2 | [CE]4 [CE]4 | %35
w: Sit laus De- o|pa- tri,|Sum- mo Chri- sto|de- cus,|
 [B,^D]3"^cresc.molto" D D2 D2 | B3 c!f! !>!c2 !>!d2 | (!>!c2 C2 E2) G2 | (G4 F4) | %39
w: Spi- ri- tu- i|San- cto: Tri- bus|ho- * * nor|u- *|
!p! G2 (([DG]2!>(! [GB]2)) [Bd]2!>)! |"^poco rit."!<(! c8!<)! |!pp! [GB]4- [GB]2 z2 | %42
w: ­~nus, ho- * nor|u-|nus. *|
!<(! (D4!>(! C4)!<)!!>)! | !fermata!D8 |] %44
w: A- *|men.|
V:3
 x8 | x8 | x8 | x8 | x8 | x8 | x8 | x8 | x8 | x8 | x8 | x8 | x8 | x8 | x8 | x8 | x8 | x8 | x8 | %19
w: |||||||||||||||||||
 (A6 B2) | x8 | x8 | x8 | x8 | x8 | x8 | x8 | x8 | x8 | x8 | x8 | x8 | x8 | x8 | x8 | x8 | x8 | %37
w: pos- *||||||||||||||||||
 x8 | x8 | x8 | (A6!>(! B2)!>)! | x8 | x8 | x8 |] %44
w: |||||||
V:4
!p! B3 A G2 A2 | B4 B4 | B3!<(! A G2 A2!<)! |!>(! c4!>)! B4 |!mf! B3 ^A ^G2 A2 | %5
w: A- ve, ma- ris|stel- la,|De- i ma- ter|al- ma,|At- que sem- per|
 B2 [Bf]2 [Be]2 [B^g]2 |!f! (^g4 f2) f2 | !>!e4 ^d4 |!pp! ^c6 [^A^d]2 |!>(! [^GB]4 [FB]4!>)! | %10
w: Vir- go, Fe- lix|coe- * li|por- ta,|* li|por- ta.|
!pp! =c3 B B2 A2 | (A2 B2) B4 | B3 A A2 G2 | (G2 A2) A4 | A3"^cresc.molto" B B2 B2 | %15
w: Sol- ve vin- cla|re- * is:|Pro- fer lu- men|cæ- * cis,|Ma- la no- stra|
 [e^g]3 [eg]!f! !>![eg]2 !>![eg]2 | (!>![e=g]2 G2 c2) c2 | (e4 d4) |!p! [Bd]4- [Bd]2 z2 | z8 | z8 | %21
w: pel- le, Bo- na|cunc- * * ta|pos- *|ce. *|||
!p! B3 A G2 A2 | B4 B4 | B3 A!<(! G2 A2!<)! |!>(! c4 B4!>)! |!mf! B3 ^A ^G2 A2 | %26
w: Vi- tam præ- sta|pu- ram,|I- ter pa- ra|tu- tum,|Ut, vi- den- tes|
 B2 [Bf]2 [Be]2 [B^g]2 |!f! (^g4 f2) f2 | !>!e4 ^d4 |!pp! ^c6 [^A^d]2 |!>(! [^GB]4 [FB]4!>)! | %31
w: Je- sum, Sem- per|col- * la-|te- mur,|col- la-|te- mur.|
!pp! =c3 B B2 A2 | (A2 B2) B4 | B3 A A2 G2 | (G2 A2) A4 | A3"^cresc.molto" B B2 B2 | %36
w: Sit laus De- o|pa- * tri,|Sum- mo Chri- sto|de- * cus,|Spi- ri- tu- i|
 [e^g]3 [eg]!f! !>![eg]2 !>![eg]2 | (!>![e=g]2 G2 c2) c2 | (e4 d4) |!p! [Bd]4- [Bd]2 z2 | %40
w: San- cto: Tri- bus|ho- * * nor|u- *|­~nus. *|
"^poco rit." z8 | z8 |!pp!!<(! (B4!>(! A4)!<)!!>)! | !fermata![GB]8 |] %44
w: ||A- *|men.|
V:5
 x8 | x8 | x8 | x8 | x8 | x8 | e6 e2 | x8 | (B4!<(! ^A2) x2!<)! | x8 | x8 | x8 | x8 | x8 | x8 | %15
w: ||||||||coe- *|||||||
 x8 | x8 | c8 | x8 | x8 | x8 | x8 | x8 | x8 | x8 | x8 | x8 | e6 e2 | x8 | (B4!<(! ^A2) x2!<)! | %30
w: |||||||||||||||
 x8 | x8 | x8 | x8 | x8 | x8 | x8 | x8 | c8 | x8 | x8 | x8 | G8 | x8 |] %44
w: ||||||||||||||
V:6
!p! [G,,D,]8- | [G,,D,]4 [G,,D,]4 |!<(! E,6 [A,,E,]2!<)! |!>(! D,4!>)! ((((([G,,D,]2 G,2))))) | %4
w: A-|* ve,|ma- ris|* la, *|
!mf! F,3 F, F,2 F,2 | B,2 A,2 ^G,2 E,2 |!f! F,6 F,2 | !>![B,,F,]4 [B,,F,]4 | %8
w: At- que sem- per|Vir- go, Fe- lix|coe- li|por- ta,|
!pp! (F,4!<(! [F,,E,]2) [F,,E,]2!<)! |!>(! [B,,E,]4 [B,,^D,]4!>)! |!pp! =D,3 D, D,2 D,2 | %11
w: coe- * li|por- ta.|Sol- ve vin- cla|
 D,4 [G,,D,]4 | C,3 C, C,2 C,2 | C,4 [F,,C,]4 | B,,3"^cresc.molto" G, G,2 F,2 | %15
w: re- is:|Pro- fer lu- men|cæ- cis,|Ma- la no- stra|
 [E,D]3 C!f! !>!C2 !>!B,2 |"^dim" (!>!A,4 [A,,B,]2) [A,,E,]2 | (G,4 F,4) | %18
w: pel- le, Bo- na|cunc- * ta|pos- *|
!p! [G,,D,]4- [G,,D,]2 z2 | z8 | z8 |!p! [G,,D,]8- | [G,,D,]4 [G,,D,]4 | E,6!<(! [A,,E,]2!<)! | %24
w: ce. *|||Vi-|* tam|* sta|
!>(! D,4 (([G,,D,]2 G,2))!>)! |!mf! F,3 F, F,2 F,2 | B,2 A,2 ^G,2 E,2 |!f! F,6 F,2 | %28
w: * ram, *|Ut, vi- den- tes|Je- sum, Sem- per|col- la-|
 !>![B,,F,]4 [B,,F,]4 |!pp! (F,4!<(! [F,,E,]2) [F,,E,]2!<)! |!>(! [B,,E,]4 [B,,^D,]4!>)! | %31
w: te- mur,|col- * la-|te- mur.|
!pp! =D,3 D, D,2 D,2 | D,4 [G,,D,]4 | C,3 C, C,2 C,2 | C,4 [F,,C,]4 | %35
w: Sit laus De- o|pa- tri,|Sum- mo Chri- sto|de- cus,|
 B,,3"^cresc.molto" G, G,2 F,2 | [E,D]3 C!f! !>!C2 !>!B,2 | (!>!A,4 [A,,B,]2) [A,,E,]2 | %38
w: Spi- ri- tu- i|San- cto: Tri- bus|ho- * nor|
 (G,4 F,4) |!p! [G,,D,]4- [G,,D,]2 z2 |"^poco rit." z8 | z8 |!pp!!<(! (D,4!>(! E,4)!<)!!>)! | %43
w: u- *|­~nus. *|||A- *|
 !fermata![G,,D,]8 |] %44
w: men.|
V:7
 x8 | x8 | E,6 x2 | D,4 x4 | x8 | x8 | x8 | x8 | F,4 x4 | x8 | x8 | x8 | x8 | x8 | x8 | x8 | %16
w: |||stel-|||||||||||||
 A,4 x4 | D,8 | x8 | x8 | x8 | x8 | x8 | E,6 x2 | D,4 x4 | x8 | x8 | x8 | x8 | F,4 x4 | x8 | x8 | %32
w: |||||||præ-|pu-||||||||
 x8 | x8 | x8 | x8 | x8 | A,4 x4 | D,8 | x8 | x8 | x8 | G,,8 | x8 |] %44
w: ||||||||||||

